X:17
T:Jimmy Allen
Z:Nigel Gatherer <gatherer@ARGONET.CO.UK> 2001-9-29
M:2/4
L:1/8
N: F:http://jc.tzo.net/~jc/music/abc/England/
N:  reel/JimmyAllen_1.abc	 2006-09-23 16:15:39 UT
K:D
D>E|FD DE|F2 DE/F/|GE EF|G2 FE|Dd dc/B/|
A2 F>G|AA GE|D2::G>E|Dd dc|BA GF|Ee ed|
cA Bc|d>e dc/B/|A2 FA|B>A GF/E/|D2:|

